app/images/social__icon--trip.svg

<?xml version="1.0" encoding="UTF-8"?>
<svg width="68px" height="41px" viewBox="0 0 68 41" version="1.1" xmlns="http://www.w3.org/2000/svg" xmlns:xlink="http://www.w3.org/1999/xlink">
    <!-- Generator: Sketch 56.3 (81716) - https://sketch.com -->
    <title>Group 12</title>
    <desc>Created with Sketch.</desc>
    <defs>
        <polygon id="path-1" points="0 0.2280625 67.7646444 0.2280625 67.7646444 41 0 41"></polygon>
    </defs>
    <g id="Welcome" stroke="none" stroke-width="1" fill="none" fill-rule="evenodd">
        <g id="v1-Homepage" transform="translate(-971.000000, -2714.000000)">
            <g id="Group-12" transform="translate(971.000000, 2714.000000)">
                <g id="Group-3">
                    <mask id="mask-2" fill="white">
                        <use xlink:href="#path-1"></use>
                    </mask>
                    <g id="Clip-2"></g>
                    <path d="M51.9534222,36.4682188 C45.7153111,36.4682188 40.6629778,31.4021563 40.6629778,25.1496563 C40.6629778,20.7370313 43.1802,16.9265938 46.8448667,15.0585313 C48.3833111,14.2744063 50.1134222,13.8234063 51.9534222,13.8234063 C55.0022,13.8234063 57.7622,15.0405938 59.7938667,17.0060313 C61.9175333,19.0688438 63.2464222,21.9490938 63.2464222,25.1496563 C63.2464222,31.4021563 58.1915333,36.4682188 51.9534222,36.4682188 M33.8856444,31.9428438 C33.8856444,25.4238438 30.8879778,18.9099688 26.6227556,14.5511563 C23.4794222,11.3352188 19.6460889,9.29290625 15.8127556,9.29290625 C15.8127556,9.29290625 22.5900889,2.49459375 33.8856444,2.49459375 C45.1786444,2.49459375 51.9534222,9.29290625 51.9534222,9.29290625 C48.0996444,9.29290625 44.2484222,11.3582813 41.0948667,14.6024063 C36.8577556,18.9612188 33.8856444,25.4520313 33.8856444,31.9428438 M15.8127556,36.4682188 C9.57464444,36.4682188 4.51975556,31.4021563 4.51975556,25.1496563 C4.51975556,21.7979063 5.97897778,18.7997813 8.28153333,16.7267188 C10.2799778,14.9304063 12.9147556,13.8234063 15.8127556,13.8234063 C17.5760889,13.8234063 19.2372,14.2410938 20.7245333,14.9637188 C24.4965333,16.7959063 27.1032,20.6627188 27.1032,25.1496563 C27.1032,31.4021563 22.0483111,36.4682188 15.8127556,36.4682188 M63.2464222,13.8234063 C67.7646444,12.6933438 67.7646444,9.29290625 67.7646444,9.29290625 L56.4742,9.29290625 C49.6994222,2.49715625 42.9195333,0.22678125 33.8856444,0.22678125 C24.8492,0.22678125 18.0693111,2.49715625 11.2919778,9.29290625 L-0.00102222222,9.29290625 C-0.00102222222,9.29290625 0.00408888889,12.6933438 4.51975556,13.8234063 C3.68408889,14.9739688 2.77175556,16.4730313 1.98464444,18.0976563 C0.862755556,20.4039063 -0.00102222222,22.9664063 -0.00102222222,25.1496563 C-0.00102222222,34.4925313 6.49264444,41.0012813 15.8127556,41.0012813 C21.0976444,41.0012813 26.2726444,38.0210938 29.3623111,34.2055313 L33.8856444,41.0012813 L38.4013111,34.2055313 C41.4960889,38.0210938 46.6685333,41.0012813 51.9534222,41.0012813 C61.2684222,41.0012813 67.7646444,34.4925313 67.7646444,25.1496563 C67.7646444,23.0689063 66.9826444,20.6447813 65.9399778,18.4230938 C65.1196444,16.6754688 64.1383111,15.0534063 63.2464222,13.8234063" id="Fill-1" fill="#FFFFFF" mask="url(#mask-2)"></path>
                </g>
                <path d="M50.5,24 C49.671945,24 49,24.6715659 49,25.5008479 C49,26.3267383 49.671945,27 50.5,27 C51.3280518,27 52,26.3284341 52,25.5008479 C52.0016936,24.6715659 51.3280518,24 50.5,24" id="Fill-4" fill="#FFFEE1"></path>
                <path d="M50.9986805,27.6675462 C48.4229972,27.6675462 46.3302545,25.5778364 46.3302545,23.0026385 C46.3302545,20.4274406 48.4229972,18.3324538 50.9986805,18.3324538 C53.5743638,18.3324538 55.6671065,20.4274406 55.6671065,23.0026385 C55.6671065,25.5778364 53.5743638,27.6675462 50.9986805,27.6675462 M50.9986805,16 C47.1351555,16 44,19.1398417 44,23.0026385 C44,26.8680739 47.1351555,30 50.9986805,30 C54.8622055,30 58,26.8680739 58,23.0026385 C58,19.1398417 54.8622055,16 50.9986805,16" id="Fill-6" fill="#FFFFFF"></path>
                <path d="M15.5,24 C14.6719457,24 14,24.6715659 14,25.5008479 C14,26.3267383 14.6719457,27 15.5,27 C16.3280543,27 17,26.3284341 17,25.5008479 C17,24.6715659 16.3280543,24 15.5,24" id="Fill-8" fill="#FFFEE1"></path>
                <path d="M18,27.6675462 C15.4238311,27.6675462 13.3306938,25.5778364 13.3306938,23.0026385 C13.3306938,20.4274406 15.4238311,18.3324538 18,18.3324538 C20.5761689,18.3324538 22.6693062,20.4274406 22.6693062,23.0026385 C22.6693062,25.5778364 20.5761689,27.6675462 18,27.6675462 M18,16 C14.1331071,16 11,19.1398417 11,23.0026385 C11,26.8680739 14.1331071,30 18,30 C21.8668929,30 25,26.8680739 25,23.0026385 C25,19.1398417 21.8668929,16 18,16" id="Fill-10" fill="#FFFFFF"></path>
            </g>
        </g>
    </g>
</svg>

<svg width="68" height="41" xmlns="http://www.w3.org/2000/svg" xmlns:xlink="http://www.w3.org/1999/xlink"><defs><path id="a" d="M0 .228h67.765V41H0z"/></defs><g fill="none" fill-rule="evenodd"><g><mask id="b" fill="#fff"><use xlink:href="#a"/></mask><path d="M51.953 36.468c-6.238 0-11.29-5.066-11.29-11.318 0-4.413 2.517-8.223 6.182-10.091a11.207 11.207 0 0 1 5.108-1.236 11.24 11.24 0 0 1 7.84 3.183 11.316 11.316 0 0 1 3.453 8.144c0 6.252-5.054 11.318-11.293 11.318m-18.067-4.525c0-6.52-2.998-13.033-7.263-17.392-3.144-3.216-6.977-5.258-10.81-5.258 0 0 6.777-6.798 18.073-6.798 11.293 0 18.067 6.798 18.067 6.798-3.853 0-7.705 2.065-10.858 5.31-4.237 4.358-7.21 10.849-7.21 17.34m-18.072 4.525c-6.238 0-11.293-5.066-11.293-11.318a11.3 11.3 0 0 1 3.762-8.423 11.232 11.232 0 0 1 7.53-2.904 11.2 11.2 0 0 1 4.913 1.14 11.315 11.315 0 0 1 6.378 10.187c0 6.252-5.055 11.318-11.29 11.318m47.433-22.645c4.519-1.13 4.519-4.53 4.519-4.53h-11.29C49.698 2.497 42.92.227 33.884.227c-9.036 0-15.816 2.27-22.593 9.066H-.001s.005 3.4 4.52 4.53a28.984 28.984 0 0 0-2.534 4.275C.863 20.404-.001 22.966-.001 25.15-.001 34.493 6.493 41 15.813 41c5.285 0 10.46-2.98 13.55-6.795L33.885 41l4.515-6.795C41.496 38.02 46.67 41 51.953 41c9.315 0 15.812-6.508 15.812-15.851 0-2.081-.782-4.505-1.825-6.727a29.256 29.256 0 0 0-2.694-4.6" fill="#FFF" mask="url(#b)"/></g><path d="M50.5 24a1.5 1.5 0 1 0 0 3 1.5 1.5 0 0 0 0-3" fill="#FFFEE1"/><path d="M50.999 27.668a4.67 4.67 0 0 1-4.669-4.665A4.674 4.674 0 0 1 51 18.333a4.674 4.674 0 0 1 4.668 4.67A4.67 4.67 0 0 1 51 27.668m0-11.668C47.135 16 44 19.14 44 23.003a7 7 0 0 0 14 0A7.007 7.007 0 0 0 50.999 16" fill="#FFF"/><path d="M15.5 24a1.5 1.5 0 1 0 0 3 1.5 1.5 0 0 0 0-3" fill="#FFFEE1"/><path d="M18 27.668a4.67 4.67 0 0 1-4.67-4.665 4.674 4.674 0 0 1 4.67-4.67 4.674 4.674 0 0 1 4.67 4.67A4.67 4.67 0 0 1 18 27.668M18 16c-3.867 0-7 3.14-7 7.003A6.998 6.998 0 0 0 18 30c3.867 0 7-3.132 7-6.997A7.004 7.004 0 0 0 18 16" fill="#FFF"/></g></svg>
